X: 4
T: The Factory Smoke
R: hornpipe
M: 4/4
L: 1/8
K: Gmin
dc|BAG^F GABc|d2G2 G2bg|fedc BcdB|(3cdB (3ABG F2dc|BAG^F GABc|dg^fa g2g=f|edcB cdAc|B2G2 G2:||:ga|bgdB gdBG|DGBd gabg|afcA fcAF|CFAc fcAc|BAG^F GABc|dg^fa g2g=f|edcB cdAc|B2G2 G2:|


Tune 1985	Setting 15405

